packages/icons/src/gitops-missing.svg

<svg fill="none" height="16" viewBox="0 0 16 16" width="16" xmlns="http://www.w3.org/2000/svg"><path clip-rule="evenodd" d="m11.9777 6.00887v6.99213c0 .5523-.4478 1-1 1-.5523 0-1.00004-.4477-1.00004-1h-.00278c-.0052-.2717-.22702-.4903-.4999-.4903-.27615 0-.5.2239-.5.5 0 .5523-.44834.9903-.99732.9903-.55228 0-1-.4477-1-1-.0052-.2717-.22736-.4903-.50024-.4903-.27615 0-.5.2239-.5.5 0 .5488-.45074.9903-.99976.9903-.55228 0-1-.4477-.99999-1v-.0042l-.00001-6.99582c0-2.20914 1.79086-4 4-4s4.00004 1.79086 4.00004 4zm-4.97099-.00789c0 .55228-.44771 1-1 1-.55228 0-1-.44772-1-1 0-.55229.44772-1 1-1 .55229 0 1 .44771 1 1zm3.98929 0c0 .55228-.4477 1-.99997 1-.55228 0-1-.44772-1-1 0-.55229.44772-1 1-1 .55227 0 .99997.44771.99997 1z" fill="#fcc026" fill-rule="evenodd"/></svg>

<svg width="16" height="16" viewBox="0 0 16 16" fill="none" xmlns="http://www.w3.org/2000/svg">
<path fill-rule="evenodd" clip-rule="evenodd" d="M11.9777 6.00887L11.9777 13.001C11.9777 13.5533 11.5299 14.001 10.9777 14.001C10.4254 14.001 9.97766 13.5533 9.97766 13.001H9.97488C9.96968 12.7293 9.74786 12.5107 9.47498 12.5107C9.19883 12.5107 8.97498 12.7346 8.97498 13.0107C8.97498 13.563 8.52664 14.001 7.97766 14.001C7.42538 14.001 6.97766 13.5533 6.97766 13.001C6.97246 12.7293 6.7503 12.5107 6.47742 12.5107C6.20127 12.5107 5.97742 12.7346 5.97742 13.0107C5.97742 13.5595 5.52668 14.001 4.97766 14.001C4.42538 14.001 3.97766 13.5533 3.97767 13.001V12.9968L3.97766 6.00098C3.97766 3.79184 5.76852 2.00098 7.97766 2.00098C10.1868 2.00098 11.9777 3.79184 11.9777 6.00098L11.9777 6.00887ZM7.00671 6.00098C7.00671 6.55326 6.559 7.00098 6.00671 7.00098C5.45443 7.00098 5.00671 6.55326 5.00671 6.00098C5.00671 5.44869 5.45443 5.00098 6.00671 5.00098C6.559 5.00098 7.00671 5.44869 7.00671 6.00098ZM10.996 6.00098C10.996 6.55326 10.5483 7.00098 9.99603 7.00098C9.44375 7.00098 8.99603 6.55326 8.99603 6.00098C8.99603 5.44869 9.44375 5.00098 9.99603 5.00098C10.5483 5.00098 10.996 5.44869 10.996 6.00098Z" fill="#FCC026"/>
</svg>
